X:219
T: AUF DENN ZUM HEILGEN KRIEG
N: E1358
O: Europa, Mitteleuropa, Deutschland
R: Staende -, Soldaten -, Kriegs - Lied
M: 4/4
L: 1/8
K: G
 | G2GGA2c2 | B4z4 |
B2ABc2B2 | A4z4 |
d2cBc2B2 | A4z4 |
A4^c2c2 | d4z4 |
A3BAGFE | D4z4 |
A2AAA2A2 | A4z4 |
B2BBB2B2 | B4z4 |
d2cBc2B2 | A4z4 |
B4B2B2 | B4z4 |
c4B2A2 | G4z4

@@@ Tune index: 4903
